www/static/img/overview/button-row.svg

<svg fill="none" height="44" viewBox="0 0 140 44" width="140" xmlns="http://www.w3.org/2000/svg"><rect fill="#005a7a" height="44" rx="4" width="66"/><rect fill="#fff" height="42" rx="3" stroke="#005a7a" stroke-width="2" width="64" x="75" y="1"/><path d="m40.5994 14.2001c-.439-.332-1.067-.241-1.398.2l-8.381 11.175-4.196-3.356c-.43-.345-1.059-.274-1.406.156-.345.431-.273 1.061.156 1.406l5.806 4.644 9.619-12.825c.332-.442.242-1.069-.2-1.4z" fill="#fff"/><path d="m109.764 28.6457 8.236-7.6457-8.275-7.6888c-.182-.1917-.44-.3112-.725-.3112-.552 0-1 .4477-1 1 0 .2495.091.4777.243.6528l5.507 5.3472h-16.7481c-.5542 0-1.0019.4477-1.0019 1s.4477 1 1 1h16.75l-5.449 5.2849c-.187.2001-.301.4349-.301.7151 0 .5523.448 1 1 1 .306 0 .537-.1513.764-.3543z" fill="#005a7a"/></svg>

<svg width="140" height="44" viewBox="0 0 140 44" fill="none" xmlns="http://www.w3.org/2000/svg">
<rect width="66" height="44" rx="4" fill="#005A7A"/>
<rect x="75" y="1" width="64" height="42" rx="3" fill="white" stroke="#005A7A" stroke-width="2"/>
<path d="M40.5994 14.2001C40.1604 13.8681 39.5324 13.9591 39.2014 14.4001L30.8204 25.5751L26.6244 22.2191C26.1944 21.8741 25.5654 21.9451 25.2184 22.3751C24.8734 22.8061 24.9454 23.4361 25.3744 23.7811L31.1804 28.4251L40.7994 15.6001C41.1314 15.1581 41.0414 14.5311 40.5994 14.2001Z" fill="white"/>
<path d="M109.764 28.6457L118 21L109.725 13.3112C109.543 13.1195 109.285 13 109 13C108.448 13 108 13.4477 108 14C108 14.2495 108.091 14.4777 108.243 14.6528L113.75 20H97.0019C96.4477 20 96 20.4477 96 21C96 21.5523 96.4477 22 97 22H113.75L108.301 27.2849C108.114 27.485 108 27.7198 108 28C108 28.5523 108.448 29 109 29C109.306 29 109.537 28.8487 109.764 28.6457Z" fill="#005A7A"/>
</svg>
